X: 121931
T: Looping
S: "Roche Collection of Traditional Irish Music" [II/27/264]
L: 1/8
M: 9/8
R: slip jig
K: G
E | DED A2F A2F | DED A2F E3 |
DED A2F A2F | BdB A2F D2 :|
B | d2d d2B A3 | d2d d2B e3 |
ddd d2B A2F | BdB A2F D2 :|
